X: 839
T: Rocky Pallet
B: jims roots
M:C|
Q: 1/4=100
K:C
V:1 
%L:1/8 R:Reel D:Columbia 15516-D (78 RPM), Gid Tanner and His Skillet Lickers (1929) D:Document DOCD 8059, The Skillet Lickers vol. 4
%F:http://www.slippery-hill.com/recording/rocky-pallet
|: (g2 | "C"g2)eg abag | e c2d efec | "G7"dedc Ac3 | +slide+"C"[e3e3]e [e2e2] (g2 |
g2)eg abag | e c2d efec | "G7"dedc AdBd | "C"c3c c2 :|
|:AG | EC2C CE dc | "F"AFEG F3E | "G7"DFDC B,CDF | "C"EC2C C2 :|
|: AB | "C"cdef geg2 | abag ec2 |[1 eged cAcd | eg2 ag2 :|
V:2 eged cAGE | Ac2 dc2 |
% abcbook-tune_id 6298c27969f2672c588ae2f5


% abcbook-boost 0
% abcbook-tablature 
% abcbook-transpose 
% abcbook-lastupdated 1654178427080
% abcbook-soundfonts 
% abcbook-repeats 1


